!!!!SEGMENT: pl-wumfc--r254--001_paderewski-ignacy-jan--tobie.krn
!!!cenid: 18xx:3144
!!!COM: Paderewski, Ignacy Jan
!!!COM-rismid: pe30029943
!!!CDT: 1860/11/18-1941/06/29
!!!CNT: Polish
!!!OTL: Tobie
!!!PDT:
!!!AGN:
!!!SMS-siglum: PL-Wumfc
!!!SMS-shelfmark: R254
!!!SMS-shelfwork: 001 W
!!!SMS-variant:
!!!SMS-altvar:
!!!NIFC-rismid: 1001156103
!!!URL-scan: http://repozytorium.nifc.pl/skany/pl-wumfc--r254
!!!ONB-nifc: UWAGA: w zbiorze: 1. Tobie (skan 0001-0002), 2. Krakowiak I (skan 0002-0003), 3. Krakowiak II (skan 0003, prawa strona)
**kern	**kern	**dynam
*part2	*part1	*part1
*staff2	*staff1	*
*Iempty	*Ipiano	*
*	*I"Piano	*
*	*I'P-no	*
*clefF4	*clefG2	*
*k[b-e-a-d-g-]	*k[b-e-a-d-g-]	*
*b-:	*b-:	*
*M4/4	*M4/4	*
*met(c)	*met(c)	*
=1	=1	=1
!	!LO:TX:a:t=[[Moderato.]]\nAndante Cantabile	!
1r	2r	.
!	!LO:TX:b:t=sempre piano	!LO:DY:a
.	[2ff^;\	p
=2	=2	=2
1r	2ff\]	.
!	!	!LO:DY:a
.	[2ff;\	pp
=3	=3	=3
1r	2ff\]	.
!	!	!LO:DY:a
.	(2ff;\	ppp
=4	=4	=4
!LO:TX:b:t=due pedale	!	!
(4F\	(>4f/)	.
4En\	4en/	.
4F\	4f/	.
4D-\	4d-/	.
=5	=5	=5
4BB-/	4B-/	.
4FF/	4F/	.
2GG-/	2G-/)	.
=6	=6	=6
*	*^	*
1CC/)	2r;	[2g-/ [2e-/ [2B-/	p
*ped	*	*	*
.	2ff^/	2g-/] 2e-/] 2B-/]	.
*Xped	*	*	*
=7	=7	=7	=7
1FF/	2r	[2g-/ [2e-/ [2An/	.
*ped	*	*	*
.	[2ff/	2g-/] 2e-/] 2A/]	.
*	*v	*v	*
=8	=8	=8
*^	*	*
*	*ped	*	*
2r	1BBB-\	4ff\]	.
.	.	4r	.
2g-\ 2d-\ 2G-^\	.	(2ff^\	.
=9	=9	=9	=9
*	*ped	*	*
2r	1BBB-\	4ee-\	.
.	.	4cc\	.
2f\ 2e-\ 2An\ 2F\	.	4dd-\	.
*Xped	*	*	*
.	.	4an/	.
=10	=10	=10	=10
2r	1BBB-\	4b-\	.
.	.	4dd-\	.
!LO:SIC:o:v:t=łuk pionowy	!	!	!
2en\ 2d-\ 2B-\ 2G-^\	.	4en/	.
.	.	4e/	.
*v	*v	*	*
!!LO:LB:g=original
=11	=11	=11
2r	[1f/)	.
2e-X\ 2c\ 2A-\ 2F\	.	.
=12	=12	=12
*^	*	*
*	*^	*	*
2d-\	1BB-\	1rGG	(4f/]	<
.	.	.	4g-/	.
[<2F/	.	.	4an/	.
.	.	.	4b-/	[[
*	*v	*v	*	*
=13	=13	=13	=13
[2c/ 2F/]	1AA-\	4bn\	.
.	.	4cc\	.
2c/] 2F/	.	[2ff\)	.
=14	=14	=14	=14
*	*^	*	*
2B-/	1GG-\	1rEE	(4ff\]	<
.	.	.	4ddn\	.
2g-\ 2e-\ 2B-\	.	.	4ee-\	.
.	.	.	4ccc-X\	.
*	*v	*v	*	*
=15	=15	=15	=15
!	!	!LO:TX:b:t=rit.	!
2rEE	1DDn\	1bb-\;)	[[
2b-\ 2f\ 2B-\	.	.	.
=16	=16	=16	=16
*ped	*	*	*
2rEE	1EE-\	2r	.
!	!	!LO:TX:a:t=longa pausa?	!
[2b-\ 2e-\ 2B-;\	.	[2bb-;\	mf
*v	*v	*	*
=17	=17	=17
*Xped	*	*
(4b-\]	(4bb-\]	.
!	!	!LO:DY:t=piano
4an\	4aan\	p
4b-\	4bb-\	.
4g-\	4gg-\	.
=18	=18	=18
4e-\	4ee-\	.
4B-\	4b-\	.
4c-X\	4cc-X\	.
4e-\	4ee-\	.
=19	=19	=19
[1B-\)	[1b-\)	.
=20	=20	=20
(4B-\]	(4b-/]	pp
4An\	4an/	.
4B-\	4b-/	.
4G-\	4g-/	.
=21	=21	=21
4E-\	4e-/	.
4BB-/	4B-/	.
2C-X/)	2c-X/)	.
=22||	=22||	=22||
*	*^	*
1EE-/	2r	[2b--/ [2g-/ [2d-/	mf
*ped	*	*	*
!	!LO:TX:a:t=m.d.	!	!
.	2aa-;/	2b--/] 2g-/] 2d-/]	.
*Xped	*	*	*
!!LO:LB:g=original
=23	=23	=23	=23
*ped	*	*	*
1AAA-/	2r	[2b--/ [2g-/ [>2c/	.
.	[2aa-;/	2b--/] 2g-/] 2c/]	.
*	*v	*v	*
=24	=24	=24
*^	*	*
2r	1DD-\	4aa-/]	.
.	.	4r	.
2b--\ 2g-\ 2B--\	.	(2aa-^\	.
=25	=25	=25	=25
2r	(1DD-\	4gg-\	<
.	.	4ee-\	.
2a-\ 2g-\ 2e-\ 2A-\)	.	4ff\	.
.	.	4cc\	[[
=26	=26	=26	=26
2r	(1DD-\	4dd-\	>
.	.	4ff\	.
2f\ 2d-\ 2A-\)	.	4gn/	.
.	.	4a-/	]]
=27	=27	=27	=27
2r	(>1CC\	1an/)	f
2g-\ 2e-\ 2G-\)	.	.	.
=28	=28	=28	=28
*	*ped	*	*
2r	(>1BBB-\	(2b-\	<
2g-\ 2d-\ 2G-\)	.	2ff\	.
=29	=29	=29	=29
*	*ped	*	*
2r	(>1BBB--\	4ee-\	.
.	.	4cc\	.
2gn\ 2d-\ 2Gn\)	.	4dd-\	.
.	.	[>4en/	[[
=30	=30	=30	=30
2r	1AAA-\	4e/]	<
*	*ped	*	*
.	.	4f/	.
2f\ 2d-\ 2A-\	.	2b-/)	[[
=31	=31	=31	=31
2ryy	[1AA-\	(>4a-/	.
.	.	4f/	.
2c-X\ 2F\	.	4g-/	<
.	.	4dn/)	.
=32	=32	=32	=32
2B-\ 2G-\	1AA-\_	6e-/	.
.	.	6g-/	.
.	.	6b-/	.
2e-/ 2G-/ 2E-/	.	[2dd-\	[[
!!LO:LB:g=original
=33	=33	=33	=33
2G-/ 2En/	1AA-\]	4dd-\]	.
.	.	4bn\	.
!	!	!	!LO:DY:t=forte
2en/ 2G-/	.	4cc\	f
.	.	[>4gn/	.
=34	=34	=34	=34
2F/	1AA-\	4g/]	.
.	.	(4a-/	.
2f/ 2c/ 2A-/	.	4cc\	.
.	.	4ff\	.
=35	=35	=35	=35
*	*^	*	*
4r	2ryy	1BBB-/	2aa-\	.
(4cc-X\	.	.	.	f
4b-/	2dn\ 2B-\	.	2ddn\)	.
4a-/	.	.	.	.
*	*v	*v	*	*
=36	=36	=36	=36
(2g-:/)	1EE-\:	4r	.
.	.	(4ddn\	<
2g-\ 2e-\ 2B-\ 2G-\)	.	4ee-\	.
.	.	4ff\	[[
=37	=37	=37	=37
*	*^	*	*
4r	2ryy	1CC/	2ggn\	f>
(4g-\	.	.	.	.
4f\	2An\ 2F\	.	2an/)	]]
4e-\)	.	.	.	.
*	*v	*v	*	*
=38	=38	=38	=38
2r	1DD-\	(2b-/	mf
2f\ 2d-\ 2B-\ 2F\	.	2ff\	<
=39	=39	=39	=39
2r	1CC\	4ee-\	.
.	.	4cc\	.
2f\ 2e-\ 2An\ 2F\	.	4dd-\	[ >
.	.	4an/	.
=40	=40	=40	=40
2r	1BBB-\	4b-\	.
.	.	4dd-\	.
2d-\ 2B-\ 2G-\	.	4en'/)	]
.	.	(>4e'/	.
=41	=41	=41	=41
*	*	*	*^
!	!	!	!LO:DY:rj	!LO:DY:a
2r	1FFF\	2.f/	p	sf >
*	*	*	*v	*v
2An/ 2E-/	.	.	.
.	.	4d-/	]]
=42	=42	=42	=42
2ryy	[>1D-\ 1BBB-\	[>1B-/)	pp
2BB-\	.	.	.
!!LO:LB:g=original
=43	=43	=43	=43
!LO:TX:a:t=morendo	!	!LO:TX:b:t=morendo	!
1D-/]	(2BBB-\	1B-/]	>
.	2BB-\)	.	.
=44	=44	=44	=44
1r	(>2BBB-\	1r	.
.	2BB-\)	.	.
=45	=45	=45	=45
1r	(>2BBB-\	1r	]]
.	2BB-\)	.	.
*v	*v	*	*
=46	=46	=46
!LO:TX:b:t=quasi orgue.	!LO:TX:a:t=con anima	!
(2D-\ (2GG-\	(2b-/ (2d-/	p
2G-\ 2C-X\))	2e-/ 2c-X/))	.
=47	=47	=47
(2D-\ (2GG-\	(2b-/ (2d-/	.
2G-\ 2C-X\))	2e-/ 2c-X/))	.
=48	=48	=48
2E-\ 2AA-\	(>2a-/ (>2c-X/	.
2DD-\	2f/ 2d-/ 2A-/	.
=49	=49	=49
(4GG-\	[2g-/ [2d-/ [2B-/)	<
4D-\	.	.
4G-\	4g-/] 4d-/] 4B-/])	.
4c\)	4r	[[
=50	=50	=50
(2F\ (2BB-\	(2dd-/ (2f/	<
2B-\ 2E-\))	2g-/ 2e-/))	.
=51	=51	=51
(2F\ (2BB-\	(2dd-/ (2f/	<
2B-\ 2E-\))	2g-/ 2e-/))	.
=52	=52	=52
2B-\ 2BB-\	2dd-/ 2f/	[
2c-X\ 2AA-\	2ee-/ 2a-/ 2e-/	.
=53	=53	=53
*^	*	*
[2e-/ [<2B-/ [<2G-/	1EE-\	[2gg-/ [2ee-/ [2b-/ [2g-/	f
2e-/] 2B-/] 2G-/]	.	2gg-/] 2ee-/] 2b-/] 2g-/]	.
*v	*v	*	*
=54	=54	=54
2e-\ 2G-\ [2C-X\	2gg-/ 2cc-X/ 2g-/	mf
2c-X\ 2G-\ 2C-\]	2ee-/ 2g-/ 2e-/ 2d-/	.
!!LO:LB:g=original
=55	=55	=55
*	*^	*
2B-\ [<2BB-\	(>2dd-/ 2g-/ 2d-/	2ryy	>
*^	*	*	*
2BB-\]	2d-\ 2G-\	4gg-/	2b-\ 2g-\	.
.	.	4dd-/)	.	]
*	*	*v	*v	*
=56	=56	=56	=56
!	!	!	!LO:HP:t=diminuend
2c-X/	1AA-\	(2ee-/ 2a-/ 2e-/	>
2A-/	.	2cc-X/ 2a-/ 2e-/ 2c-X/	.
=57	=57	=57	=57
*	*	*^	*
2G-/	[2EE-\	2b-/	2e-\ 2B-\	.
2B-/ 2E-/	2EE-\]	4ee-/	2g-\ 2e-\	.
.	.	4b-/)	.	.
*	*	*v	*v	*
*v	*v	*	*
=58	=58	=58
1FF/	2a-/ 2e-/ 2A-/	>
.	((4e-</ [<4A-</ 4E-</	.
.	4dn</ 4A-</] 4Dn</))	.
=59	=59	=59
*^	*	*
!	!	!	!LO:HP:b
(2D-\	[<1BBB-\	8Dn</	]<sf
.	.	[<8F</L	.
.	.	[<8B-</	]
.	.	[<8d-</J	[
2ryy	.	2f</_ 2d-</_ 2B-</_< 2F</)]	.
*v	*v	*	*
=60	=60	=60
1D-/_ 1BBB-/]	1f</_ 1d-</_ 1B-</_ [1F</	[
=61	=61	=61
2D-\] 2BBB-\	2f</]; 2d-</] 2B-</]	.
2r	2r	.
=62	=62	=62
!	!LO:TX:a:t=grandioso	!
(2G-\ 2D-\ 2GG-\	(>2b-/ 2g-/ 2d-/ 2B-/	<
2C-X\ 2GG-\ 2CC-X\)	2e-</ 2c-X</ 2G-</ 2E-</)	ff [[
=63	=63	=63
(2G-\ 2D-\ 2GG-\	(>2b-/ 2g-/ 2d-/ 2B-/	.
2C-X\ 2GG-\ 2CC-X\)	2e-</ 2c</ 2G-</ 2E-</)	.
=64	=64	=64
*ped	*	*
2AA-\ 2AAA-\	(>2a-/ 2e-/ 2c-X</ 2A-</	.
*Xped	*	*
*ped	*	*
2D-\ 2DD-\	(2f</ 2d-</ 2A-</ 2F</	.
*Xped	*	*
=65	=65	=65
*^	*	*
*ped	*	*	*
(<4GG-/	1GGG-\	[2g-/ [<2d-</ [<2B-</ 2G-</)	<
4D-\	.	.	.
4G-\	.	4g-/] 4d-</] 4B-</])	.
4B-\)	.	4r	[
*v	*v	*	*
=66	=66	=66
!	!	!LO:DY:a
(<2B-/ 2F/ 2BB-/	(2dd-/ 2b-/ 2f/ 2d-/	>
.	.	ff
2E-\ 2BB-\ 2EE-\)	2g-/ 2e-/ 2B-/ 2G-/)	]
=67	=67	=67
(<2B-\ 2F\ 2BB-\	(2dd-/ 2b-/ 2f/ 2d-/	.
2E-\ 2BB-\ 2EE-\)	2g-/ 2e-/ 2B-/ 2G-/)	.
!!LO:PB:g=original
=68	=68	=68
!	!	!LO:HP:a
2A-\ 2AA-\	(1cc-X/ 1f/ 1e-/ (1c-X/	>
*8ba	*	*
2FF\ 2FFF\	.	.
*X8ba	*	*
=69	=69	=69
2BB-\	1b-/ 1f/ 1dn/ 1B-/))	]
2BB-\ 2BBB-;\	.	.
=70	=70	=70
*^	*	*
!	!	!LO:TX:a:t=piano il accompagnamento	!
(2BB-^/	[1EE-\	4r	.
.	.	4b-/ 4g-/ 4e-/ 4B-/	.
!LO:TX:a:t=marcato bene la melodia?	!	!	!
2B-/	.	4r	.
.	.	4g-/ 4e-/ 4B-/	.
=71	=71	=71	=71
4A-/	1EE-\_	4r	.
4F/	.	4a-/ 4e-/ 4c-X/	.
4G-/	.	4r	.
4Dn/)	.	4g-/ 4B-/ 4A-/	.
=72	=72	=72	=72
(4E-/	1EE-\_	4r	.
4G-/	.	4e-/ 4B-/	.
4AAn/	.	4r	.
4AA/	.	4e-/ 4cn/ 4G-/	.
=73	=73	=73	=73
[1BB-/)	4EE-\]	[1dn/ [1B-/ [1F/	.
.	4AA-X\	.	.
.	4GG-\	.	.
.	4FF\	.	.
=74	=74	=74	=74
(2BB-/]	[1EE-\	4d/] 4B-/] 4F/]	.
.	.	4e-/ 4B-/ 4G-/	.
2B-/	.	4r	.
.	.	4g-/ 4e-/ 4B-/	.
=75	=75	=75	=75
4A-/	1EE-\_	4r	.
4F/	.	4a-/ 4e-/ 4c-X/	.
4B-/	.	4r	.
4G-/	.	4b-/ 4dn/ 4A-/	.
=76	=76	=76	=76
(4E-/)	2EE-\]	4r	.
!	!	!LO:TX:a:t=ritenuto poco	!
4E-/	.	4b-/ 4e-/ 4G-/	.
4G-:/	2CC:\	4r	.
4G-/	.	4cc/ 4e-/ 4B-/	.
=77	=77	=77	=77
2F/)	1FF\;	2an/ 2f/ 2An/	.
2F/	.	2f/	.
*v	*v	*	*
!!LO:PB:g=original
=78	=78	=78
*k[b-e-]	*k[b-e-]	*
*ped	*	*
!	!LO:TX:a:t=grave.	!
(<2B-\ 2F\ 2BB-\	(2dd/ 2b-/ 2f/ 2d/	mf
2E-\ 2BB-\ 2EE-\)	2g/ 2e-/ 2B-/ 2G/)	.
*ped	*	*
=79	=79	=79
*ped	*	*
(<2B-\ 2F\ 2BB-\	(2dd/ 2b-/ 2f/ 2d/	.
*ped	*	*
2E-\ 2BB-\ 2EE-\)	2g/ 2e-/ 2B-/ 2G/)	.
=80	=80	=80
(<2C\ 2CC\	(2cc/ 2g/ 2e-/ (2c/	.
2F\ 2FF\)	(2an/ 2f/ 2c/ 2An/)	.
=81	=81	=81
*^	*	*
(4BB-/	1BBB-\	1b-/ 1f/ 1d/ 1B-/))	<
4F/	.	.	.
4B-/	.	.	.
4d/)	.	.	[
*v	*v	*	*
=82	=82	=82
2d\ 2A\ 2D\	(>2ff/ 2dd/ 2a/ 2f/	sf
2G\ 2D\ 2GG\	2b-/ 2g/ 2d/ 2B-/)	<
=83	=83	=83
2d\ 2A\ 2D\	(>2ff/ 2dd/ 2a/ 2f/	.
2G\ 2D\ 2GG\	2b-/ 2g/ 2d/ 2B-/)	[[
=84	=84	=84
(2d\ 2D\	(<2ff/ 2dd/ 2a/ 2f/	<
2e-\ 2C\	2gg/ 2ee-/ 2cc/ 2g/	.
=85	=85	=85
*^	*	*
1g/ 1d/) 1B-/ 1G/;	1GGG\	1bb-\ 1gg\ 1dd\ 1b-\;)	[ff
=86	=86	=86	=86
(2g\ 2e-\ 2G\	1EE-\	(2bb-\ 2ee-\ 2b-\	f
!	!	!	!LO:DY:b=2
2e-\ 2B-\ 2E-\	.	2gg\ 2ee-\ 2g\	f
*v	*v	*	*
=87	=87	=87
*	*^	*
2d\ 2B-\ 2D\	2ff\ 2b-\ 2f\	2ryy	.
2d\ 2F\ 2BB-\)	4bb-/	2dd\ 2b-\	.
.	4ff/)	.	.
*	*v	*v	*
=88	=88	=88
*^	*	*
*	*	*	*^
*	*	*	*	*^
!	!	!	!LO:HP:t=diminuendo	!	!
2e-\ 2c\ 2E-\	1CC\	(2gg/ 2cc/ 2g/	ff >	>	>
2c\ 2G\ 2C\	.	2ee-/ 2cc/ 2e-/	.	.	.
*v	*v	*	*	*	*
=89	=89	=89	=89	=89
*	*^	*	*	*
2B-\ 2G\ 2BB-\	2dd/ 2g/ 2d/	2ryy	.	.	.
2B-\ 2D\ 2GG\	4gg/	2b-\ 2g\	.	.	.
.	4dd/)	.	.	]	]
*	*	*	*	*v	*v
*	*	*	*v	*v
*	*v	*v	*
!!LO:LB:g=original
=90	=90	=90
2G\ 2EE-\	2cc/ 2g/ 2c^/	]
(2AA^\	(>4g/ 4c/ 4G/	f
.	4f#X/ 4c/ 4F#X/	.
=91	=91	=91
!	!	!LO:HP:b=2
*ped	*	*
[1F#X/: [1DD/:)	[1a/: [1f#X/: [1d/: [1A/:)	>
=92	=92	=92
1F#/_ 1DD/_	1a/_ 1f#/_ 1d/_ 1A/_	.
=93	=93	=93
2F#/] 2DD/]	2a/] 2f#/] 2d/] 2A/]	]
*Xped	*	*
2r	2r	.
=94	=94	=94
!	!LO:TX:b:t=piu piano e piu lento	!
2B-\ 2F\ 2BB-\	(2dd/ 2b-/ 2f/ 2d/	.
2E-\ 2BB-\ 2EE-\	2g/ 2e-/ 2B-/ 2G/)	.
=95	=95	=95
2B-\ 2F\ 2BB-\	(2dd/ 2b-/ 2f/ 2d/	.
2E-\ 2BB-\ 2EE-\	2g/ 2e-/ 2B-/ 2G/)	.
=96	=96	=96
2C\ 2CC\	(2cc/ 2g/ 2e-/ 2c/	>
!	!LO:TX:b:t=ritenuto	!
*ped	*	*
2F\ 2FF\	2a/ 2f/ 2c/ 2A/	.
=97	=97	=97
2F;\	2f;/)	.
2F;\	2f;/	.
*Xped	*	*
=98||	=98||	=98||
*k[b-e-a-d-g-]	*k[b-e-a-d-g-]	*
!	!LO:TX:a:t=Tempo 1o.	!
1r	2r	]
.	[2ff\	p
=99	=99	=99
1r	2ff\]	.
.	[2ff\	pp
=100	=100	=100
1r	2ff\]	.
.	[2ff\	ppp
=101	=101	=101
*^	*	*
(4FF/	1BBB-\	4ff\]	.
4F/	.	4r	.
!	!	!	!LO:DY:b=2
4d-/ 4BB-/	.	(2ff^\	pp
4g-^/)	.	.	pp
!!LO:LB:g=original
=102	=102	=102	=102
!	!	!LO:TX:a:t=dolore	!
(4FF/	1BBB-\	4ee-\	.
4F/	.	4cc\	.
4An/ 4BB-/	.	4dd-\	.
4f^/)	.	4an/)	.
=103	=103	=103	=103
*	*^	*	*
(4FF/	1BBB-\	2ryy	(4b-\	.
4F/	.	.	4dd-\	.
4d-:/	.	2G-\: 2BB-:\	4en/	.
8c/L	.	.	4e/	.
8B-/J)	.	.	.	.
=104	=104	=104	=104	=104
(1An/	1BBB-\	(4FF/	[>1f/)	mf
.	.	4F\	.	.
.	.	4E-\	.	.
.	.	8D-\L	.	.
.	.	8C\J	.	.
=105	=105	=105	=105	=105
*	*	*	*^	*
(4B-/)	1BBB-\	4FF/)	(2f/]	4d-\	.
!	!	!	!	!	!LO:HP:b=2
4F/	.	4ryy	.	4ryy	<
4d-/	.	2ryy	2ff\	2ryy	.
4g-/)	.	.	.	.	[
*	*v	*v	*	*	*
*	*	*v	*v	*
=106	=106	=106	=106
!	!	!	!LO:HP:a
(4FF/	1BBB-\	4ee-\	<
4F/	.	4cc\	.
!	!	!	!LO:HP:a
4An\ 4BB-\	.	4ff\	[ >
4f^\)	.	4dd-\	.
=107	=107	=107	=107
*	*^	*	*
(4FF/	1BBB-\	2ryy	4b-\	.
4F/	.	.	4dd-\	.
4d-/ 4Gn/	.	4BB-\	4en/	]
8c/L	.	4ryy	4e/	.
8B-/J)	.	.	.	.
*	*v	*v	*	*
=108	=108	=108	=108
*	*	*^	*
4r	1AAA-\	4cc/	2c\	p
4C/	.	4a-/	.	.
2A-/	.	[<2f/	4dn^\	.
.	.	.	4c\	.
=109	=109	=109	=109	=109
*	*	*^	*	*
4r	1GGGn\	(4f/])	4ryy	[2Bn\	>
(<4Dn/	.	2a-/	2.f\	.	.
2Gn/)	.	.	.	2B\]	.
.	.	4gn/	.	.	.
*	*	*v	*v	*	*
*	*	*v	*v	*
=110	=110	=110	=110
4r	1CC\	(2gn/ 2en/ [2B-/)	]
*ped	*	*	*
!	!	!	!LO:HP:b=2
(2D-X/	.	.	<
.	.	2en/ 2B-/] 2G-/)	.
4C/)	.	.	[[
=111	=111	=111	=111
*	*ped	*	*
!	!	!	!LO:HP:a
2r	1FFF\	(4e-/ 4B-/ 4G-X/	<
!	!	!	!LO:HP:a
.	.	2g-/ 2e-/ 2B-/	[sf>
2C/	.	.	.
!	!	!	!LO:HP:a
.	.	4f/ 4e-/ 4An/)	]]
*v	*v	*	*
!!LO:LB:g=original
=112	=112	=112
!LO:TX:b:t=sempre legato	!	!
(4F\ 4FF\	4f/ 4e-/ 4An/	<
4E-\	4r	.
4D-\	2r	[[
4C\	.	.
=113	=113	=113
*^	*^	*
(4d-/	4BB-\	2r	2f\	.
4c/	4AAn\	.	.	.
4c-X/	4AA-X\	(2ff/	2d-\	.
4B-/	4GG-\	.	.	.
=114	=114	=114	=114	=114
4B-/	4GG-X\	4ee-/	2e-\	>
4An/	4FF\	4cc/	.	.
!	!	!LO:TX:a:t=largo	!	!
4Gn/	4EEn\	4dd-/	4d-\	.
4G-X/)	4EE-X\	(4an/)	4c\	.
=115	=115	=115	=115	=115
(2F/	4DDn\	4b-/	4B-\	.
.	4DD-X\	4dd-/ 4f/	4B-\	.
2Gn/)	2CC\	4en/	2B-\	.
.	.	4e/)	.	.
*	*	*v	*v	*
=116	=116	=116	=116
!	!	!LO:TX:b:t=ritenut	!
(4F/)	1FF\	(>2f/ 2c/ 2An/	]
(<4G-X^/	.	.	.
4C/	.	(2an/ (2e-/	.
[<4F/	.	.	.
=117	=117	=117	=117
(4F/]))	[1BB-\	4b-/ 4d-/)))	.
2F'/	.	4r	.
!	!	!LO:TX:a:t=poco.piu.lento.	!
.	.	(2ff\	pp
[4F'/	.	.	.
=118	=118	=118	=118
4F/]	1BB-\]	2ff\	>
2F'/	.	.	.
.	.	2ff\)	]]
4F'/)	.	.	.
*v	*v	*	*
=119	=119	=119
*ped	*	*
(2BB-\	(2d-</ 2B-</ (>2F</	ppp
*ped	*	*
2EE-\)	2G-</ 2E-</ 2BB-</)	.
=120	=120	=120
*ped	*	*
(2BB-\	(2d-</ 2B-</ 2F</	.
*ped	*	*
2EE-\)	2G-</ 2E-</ 2BB-</)	.
=121	=121	=121
*ped	*	*
2BBB-\	2d-</ 2B-</ 2F<,/)	.
2r	[2ff^\	p
!LO:LB:g=original	!	!
=122	=122	=122
1r	2ff\]	.
.	[2ff\	pp
=123	=123	=123
1r	2ff\]	.
.	(2ff\	ppp
=124	=124	=124
!LO:TX:b:t=Pianisſimo et lento posſibile.	!	!
(4F\	4f/)	.
!	!	!LO:DY:t=pianissi
4En\	(4en/	pp
4F\	4f/	.
4D-\	4d-/	.
=125	=125	=125
4BB-/	4B-/	.
4FF/	4F/	.
2GG-;/)	2G-;/)	.
=126	=126	=126
([2GG-\	([2B-/ [2G-/	.
2GG-\]	2B-/] 2G-/]	.
=127	=127	=127
1FF/	[2c/ [2A-/	.
.	2c/] 2A-/])	.
=128	=128	=128
!LO:TX:b:t=Une pedale.	!	!
(1BBB-/)	(1dn/ (1F/	.
=129	=129	=129
1BBB-/'	1dn/ 1F/'	.
=130	=130	=130
2BBB-'/)	2dn/ 2F'/))	.
2r	2r	.
=131	=131	=131
!	!LO:TX:a:t=Grudzień 1880 Roku	!
1r;	1r;	.
==	==	==
*-	*-	*-
!!!system-decoration: [(s1,s2)]
!!!RDF**kern: > = above
!!!RDF**kern: < = below
!!!ENC:Berenika Jozajtis
!!!END:2021-11-06
!!!ENC: Leszek Kubiak
!!!END: 2021-11-09
